communes/5136.svg

<?xml version="1.0" encoding="UTF-8" standalone="no"?>
<svg
   xmlns:dc="http://purl.org/dc/elements/1.1/"
   xmlns:cc="http://creativecommons.org/ns#"
   xmlns:rdf="http://www.w3.org/1999/02/22-rdf-syntax-ns#"
   xmlns:svg="http://www.w3.org/2000/svg"
   xmlns="http://www.w3.org/2000/svg"
   xmlns:xlink="http://www.w3.org/1999/xlink"
   xmlns:sodipodi="http://sodipodi.sourceforge.net/DTD/sodipodi-0.dtd"
   xmlns:inkscape="http://www.inkscape.org/namespaces/inkscape"
   height="763"
   width="603"
   version="1.0"
   id="svg20"
   sodipodi:version="0.32"
   inkscape:version="0.46"
   sodipodi:docname="Onsernone-coat_of_arms.svg"
   sodipodi:docbase="C:\Documents and Settings\Steve\Bureau\Blason Villages Suisse pour Wikipédia (par Delta-9)"
   inkscape:output_extension="org.inkscape.output.svg.inkscape">
  <metadata
     id="metadata31">
    <rdf:RDF>
      <cc:Work
         rdf:about="">
        <dc:format>image/svg+xml</dc:format>
        <dc:type
           rdf:resource="http://purl.org/dc/dcmitype/StillImage" />
        <dc:date>07-AUG-2006</dc:date>
        <dc:creator>
          <cc:Agent>
            <dc:title>Jérôme BLUM (wagner51)</dc:title>
          </cc:Agent>
        </dc:creator>
        <cc:license
           rdf:resource="http://creativecommons.org/licenses/GPL/2.0/" />
        <dc:coverage />
        <dc:description>Gabarit pour le Projet:Blasons de WIkipédia</dc:description>
        <dc:subject>
          <rdf:Bag>
            <rdf:li>blason suisse modèle gabarit projet blasons</rdf:li>
          </rdf:Bag>
        </dc:subject>
        <dc:language>fr</dc:language>
        <dc:title>Gabrit d'un blason suisse</dc:title>
      </cc:Work>
      <cc:License
         rdf:about="http://creativecommons.org/licenses/GPL/2.0/">
        <cc:permits
           rdf:resource="http://web.resource.org/cc/Reproduction" />
        <cc:permits
           rdf:resource="http://web.resource.org/cc/Distribution" />
        <cc:requires
           rdf:resource="http://web.resource.org/cc/Notice" />
        <cc:permits
           rdf:resource="http://web.resource.org/cc/DerivativeWorks" />
        <cc:requires
           rdf:resource="http://web.resource.org/cc/ShareAlike" />
        <cc:requires
           rdf:resource="http://web.resource.org/cc/SourceCode" />
      </cc:License>
    </rdf:RDF>
  </metadata>
  <defs
     id="defs29"><inkscape:perspective
   sodipodi:type="inkscape:persp3d"
   inkscape:vp_x="0 : 381.5 : 1"
   inkscape:vp_y="0 : 1000 : 0"
   inkscape:vp_z="603 : 381.5 : 1"
   inkscape:persp3d-origin="301.5 : 254.33333 : 1"
   id="perspective28" />
<linearGradient
   id="linearGradient2893">
  <stop
     style="stop-color:#ffffff;stop-opacity:0.3137255;"
     offset="0"
     id="stop2895" />
  <stop
     id="stop2897"
     offset="0.19"
     style="stop-color:#ffffff;stop-opacity:0.25098041;" />
  <stop
     style="stop-color:#6b6b6b;stop-opacity:0.1254902;"
     offset="0.60000002"
     id="stop2901" />
  <stop
     style="stop-color:#000000;stop-opacity:0.1254902;"
     offset="1"
     id="stop2899" />
</linearGradient>
<linearGradient
   id="linearGradient2955">
  <stop
     style="stop-color:white;stop-opacity:0;"
     offset="0"
     id="stop2965" />
  <stop
     style="stop-color:black;stop-opacity:0.64583331;"
     offset="1"
     id="stop2959" />
</linearGradient>
<radialGradient
   inkscape:collect="always"
   xlink:href="#linearGradient2893"
   id="radialGradient3236"
   gradientUnits="userSpaceOnUse"
   gradientTransform="matrix(1.215027,1.531577e-24,1.464684e-23,1.266667,-839.1924,-490.4894)"
   cx="858.04236"
   cy="579.93323"
   fx="858.04236"
   fy="579.93323"
   r="300" />
<inkscape:perspective
   id="perspective2479"
   inkscape:persp3d-origin="306 : 264 : 1"
   inkscape:vp_z="612 : 396 : 1"
   inkscape:vp_y="0 : 1000 : 0"
   inkscape:vp_x="0 : 396 : 1"
   sodipodi:type="inkscape:persp3d" />

	
	

	
	
	
</defs>
  <sodipodi:namedview
     inkscape:window-height="917"
     inkscape:window-width="1227"
     inkscape:pageshadow="2"
     inkscape:pageopacity="0.0"
     guidetolerance="10.0"
     gridtolerance="10.0"
     objecttolerance="10.0"
     borderopacity="1.0"
     bordercolor="#666666"
     pagecolor="#ffffff"
     id="base"
     inkscape:zoom="0.57972566"
     inkscape:cx="269.29074"
     inkscape:cy="427.8451"
     inkscape:window-x="1294"
     inkscape:window-y="35"
     inkscape:current-layer="layer2"
     showgrid="false"
     showguides="true"
     inkscape:guide-bbox="true">
    <sodipodi:guide
       orientation="horizontal"
       position="761.5"
       id="guide1885" />
    <sodipodi:guide
       orientation="vertical"
       position="1.5"
       id="guide1887" />
    <sodipodi:guide
       orientation="horizontal"
       position="1.5"
       id="guide1889" />
    <sodipodi:guide
       orientation="vertical"
       position="601.5"
       id="guide1891" />
    <sodipodi:guide
       orientation="vertical"
       position="301.50081"
       id="guide1893" />
  </sodipodi:namedview>
  <desc
     id="desc22">Coat of Arms of Canton of Freiburg (Fribourg)</desc>
  <g
     inkscape:groupmode="layer"
     id="layer1"
     inkscape:label="Fond écu"
     style="opacity:1"
     sodipodi:insensitive="true">
    <path
       style="opacity:1"
       d="M 1.4999969,1.5 L 1.4999969,460.368 C 1.4999969,626.679 135.814,761.5 301.5,761.5 C 467.186,761.5 601.5,626.679 601.5,460.368 L 601.5,1.5 L 1.4999969,1.5 z"
       id="path2486" />
    <path
       id="path2464"
       d="M 1.4999969,251.188 L 1.4999969,460.368 C 1.4999969,626.679 135.814,761.5 301.5,761.5 C 467.186,761.5 601.5,626.679 601.5,460.368 L 601.5,251.188 L 1.4999969,251.188 z"
       style="opacity:1;fill:#fcef3c" />
    <rect
       id="rect2466"
       height="166.45799"
       width="600"
       y="1.5"
       x="1.5"
       style="opacity:1;fill:#5ab532" />
  </g>
  <g
     inkscape:groupmode="layer"
     id="layer2"
     inkscape:label="Meubles"
     style="opacity:1"
     sodipodi:insensitive="true">
    <path
       id="path2470"
       d="M 450.833,369.833 C 420.273,369.833 395.5,394.606 395.5,425.167 L 395.5,746.401 C 437.179,732.608 474.812,709.895 506.167,680.511 L 506.167,425.167 C 506.167,394.606 481.394,369.833 450.833,369.833 z M 301.5,309.167 C 270.94,309.167 246.167,333.94 246.167,364.5 L 246.167,756.368 C 264.103,759.725 282.594,761.5 301.5,761.5 C 320.406,761.5 338.896,759.726 356.833,756.368 L 356.833,364.5 C 356.833,333.94 332.06,309.167 301.5,309.167 z M 152.167,369.833 C 121.607,369.833 96.833997,394.606 96.833997,425.167 L 96.833997,680.512 C 128.189,709.896 165.822,732.608 207.501,746.401 L 207.501,425.167 C 207.5,394.606 182.726,369.833 152.167,369.833 z" />
    <path
       id="path2472"
       d="M 573.215,588.13 L 301.5,451.834 L 29.784997,588.13 C 40.898997,611.903 55.013997,633.978 71.646997,653.865 C 77.249997,637.224 94.178997,617.64 109.668,602.993 C 161.591,553.889 240.656,530.5 301.5,530.5 C 362.344,530.5 441.409,553.889 493.332,602.993 C 508.821,617.64 525.75,637.225 531.353,653.865 C 547.986,633.979 562.102,611.903 573.215,588.13 z"
       style="fill:#ffffff;stroke:#000000;stroke-width:3;stroke-linecap:round;stroke-linejoin:round" />
  </g>
  <g
     inkscape:groupmode="layer"
     id="layer3"
     inkscape:label="Reflet final"
     style="display:inline"
     sodipodi:insensitive="true">
    <path
       style="fill:url(#radialGradient3236);fill-opacity:1"
       d="M 1.5,1.5 L 1.5,460.3679 C 1.5,626.67854 135.81454,761.5 301.49993,761.5 C 467.1854,761.5 601.5,626.67854 601.5,460.3679 L 601.5,1.5 L 1.5,1.5 z "
       id="path2346" />
  </g>
  <g
     inkscape:groupmode="layer"
     id="layer4"
     inkscape:label="Contour final"
     style="display:inline"
     sodipodi:insensitive="true">
    <path
       style="fill:none;fill-opacity:1;stroke:#000000;stroke-width:3;stroke-miterlimit:4;stroke-dasharray:none;stroke-opacity:1"
       d="M 1.5,1.5 L 1.5,460.36794 C 1.5,626.67854 135.81454,761.5 301.49993,761.5 C 467.1854,761.5 601.5,626.67854 601.5,460.36794 L 601.5,1.5 L 1.5,1.5 z "
       id="path3239" />
  </g>
</svg>

<?xml version="1.0" encoding="UTF-8"?>
<svg version="1.0" viewBox="0 0 603 763" xmlns="http://www.w3.org/2000/svg" xmlns:cc="http://creativecommons.org/ns#" xmlns:dc="http://purl.org/dc/elements/1.1/" xmlns:rdf="http://www.w3.org/1999/02/22-rdf-syntax-ns#" xmlns:xlink="http://www.w3.org/1999/xlink">
<metadata>
<rdf:RDF>
<cc:Work rdf:about="">
<dc:format>image/svg+xml</dc:format>
<dc:type rdf:resource="http://purl.org/dc/dcmitype/StillImage"/>
<dc:date>07-AUG-2006</dc:date>
<dc:creator>
<cc:Agent>
<dc:title>Jérôme BLUM (wagner51)</dc:title>
</cc:Agent>
</dc:creator>
<cc:license rdf:resource="http://creativecommons.org/licenses/GPL/2.0/"/>
<dc:coverage/>
<dc:description>Gabarit pour le Projet:Blasons de WIkipédia</dc:description>
<dc:subject>
<rdf:Bag>
<rdf:li>blason suisse modèle gabarit projet blasons</rdf:li>
</rdf:Bag>
</dc:subject>
<dc:language>fr</dc:language>
<dc:title>Gabrit d'un blason suisse</dc:title>
</cc:Work>
<cc:License rdf:about="http://creativecommons.org/licenses/GPL/2.0/">
<cc:permits rdf:resource="http://web.resource.org/cc/Reproduction"/>
<cc:permits rdf:resource="http://web.resource.org/cc/Distribution"/>
<cc:requires rdf:resource="http://web.resource.org/cc/Notice"/>
<cc:permits rdf:resource="http://web.resource.org/cc/DerivativeWorks"/>
<cc:requires rdf:resource="http://web.resource.org/cc/ShareAlike"/>
<cc:requires rdf:resource="http://web.resource.org/cc/SourceCode"/>
</cc:License>
</rdf:RDF>
</metadata>
<defs>
<radialGradient id="a" cx="858.04" cy="579.93" r="300" gradientTransform="matrix(1.215 1.5316e-24 1.4647e-23 1.2667 -839.19 -490.49)" gradientUnits="userSpaceOnUse">
<stop stop-color="#fff" stop-opacity=".31373" offset="0"/>
<stop stop-color="#fff" stop-opacity=".25098" offset=".19"/>
<stop stop-color="#6b6b6b" stop-opacity=".12549" offset=".6"/>
<stop stop-opacity=".12549" offset="1"/>
</radialGradient>
</defs>
<desc>Coat of Arms of Canton of Freiburg (Fribourg)</desc>
<g>
<path d="m1.5 1.5v458.87c0 166.31 134.31 301.13 300 301.13s300-134.82 300-301.13v-458.87h-600z"/>
<path d="m1.5 251.19v209.18c0 166.31 134.31 301.13 300 301.13s300-134.82 300-301.13v-209.18h-600z" fill="#fcef3c"/>
<rect x="1.5" y="1.5" width="600" height="166.46" fill="#5ab532"/>
<path d="m450.83 369.83c-30.56 0-55.333 24.773-55.333 55.334v321.23c41.679-13.793 79.312-36.506 110.67-65.89v-255.34c0-30.561-24.773-55.334-55.334-55.334zm-149.33-60.666c-30.56 0-55.333 24.773-55.333 55.333v391.87c17.936 3.357 36.427 5.132 55.333 5.132s37.396-1.774 55.333-5.132v-391.87c0-30.56-24.773-55.333-55.333-55.333zm-149.33 60.666c-30.56 0-55.333 24.773-55.333 55.334v255.34c31.355 29.384 68.988 52.096 110.67 65.889v-321.23c-1e-3 -30.561-24.775-55.334-55.334-55.334z"/>
<path d="m573.22 588.13-271.72-136.3-271.72 136.3c11.114 23.773 25.229 45.848 41.862 65.735 5.603-16.641 22.532-36.225 38.021-50.872 51.923-49.104 130.99-72.493 191.83-72.493s139.91 23.389 191.83 72.493c15.489 14.647 32.418 34.232 38.021 50.872 16.633-19.886 30.749-41.962 41.862-65.735z" fill="#fff" stroke="#000" stroke-linecap="round" stroke-linejoin="round" stroke-width="3"/>
</g>
<g>
<path d="m1.5 1.5v458.87c0 166.31 134.31 301.13 300 301.13 165.69 0 300-134.82 300-301.13v-458.87h-600z" fill="url(#a)"/>
<path d="m1.5 1.5v458.87c0 166.31 134.31 301.13 300 301.13 165.69 0 300-134.82 300-301.13v-458.87h-600z" fill="none" stroke="#000" stroke-width="3"/>
</g>
</svg>
